X:1
T:Title
%%score { 1 | ( 2 3 ) }
L:1/8
Q:1/4=100
M:4/4
K:E
V:1 treble nm="Grand Piano"
V:2 bass 
V:3 bass 
V:1
 [GB]2 [Ge]2 [Ge]2 [Bd][Ac] | [GB]2 [EG]2 [GB]2 [EG]2 | [DF]2 [EG]2 [FA]2 [EG]F | G2 c2 B4 | %4
w: Wm.~B.~Bradbury * * * *||||
 [GB]2 [Ge]2 [Ge]2 [Bd][Ac] | [GB]2 [EG]2 [GB]2 G2 | F2 F2 F2 B>c | d2 c2 [DB]4 | %8
w: ||||
 [Fd]2 [Ad]2 [Ad]2 [Ac]>[Ad] | [Ge]2 [GB]2 [EG]2 [GB]2 | [Ec]2 [Ec]2 [Ec]>[Ed] [Ee]>[Ec] | %11
w: |||
 [EB]4 [EG]4 | [Fd]2 [Ad]2 [Ad]2 [Ac]>[Ad] | [Ge]2 [B,GB]2 [CAe]2 [EAc]2 | %14
w: |||
 [EGB]3 [GB] [Ac]>[GB] [Ac]>[Ad] | [Ge]4 [Ad]>[Ac] [CGB]>[CFA] | [EG]3 [EG] [FA]2 [DF]2 | E6 z2 |] %18
w: ||||
V:2
 [E,B,]2 [E,B,]2 [E,B,]2 [E,B,][E,E] | [E,E]2 [E,B,]2 [E,E]2 [E,B,]2 | %2
 [B,,B,]2 [B,,B,]2 [B,,B,]2 z D | [E,B,E]2 [E,A,E]2 [E,G,E]4 | %4
 [E,B,]2 [E,B,]2 [E,B,]2 [E,B,][E,E] | [E,E]2 [E,B,]2 [E,E]2 [E,B,E]2 | %6
 [F,B,D]2 [F,B,D]2 [F,B,D]2 [F,B,D]>[F,B,E] | [F,B,F]2 [F,^A,E]2 [B,,B,]4 | %8
 [B,,B,]2 [B,,B,]2 [B,,B,]2 [B,,B,]>[B,,B,] | [E,B,]2 [E,E]2 [E,B,]2 [E,B,]2 | %10
 [A,,A,]2 [A,,A,]2 [A,,A,]>[A,,B,] [A,,C]>[A,,A,] | [E,G,]4 [E,B,]4 | %12
 [B,,B,]2 [B,,B,]2 [B,,B,]2 [B,,B,]>[B,,B,] | [E,B,]2 E,2 A,,2 A,,2 | %14
 B,,3 [B,,B,] [B,,B,]>[B,,B,] [B,,B,]>[B,,B,] | [E,B,]4 [A,,A,]>[A,,A,] A,,>A,, | %16
 [B,,B,]3 [B,,B,] [B,,B,]2 [B,,B,]2 | [E,G,]6 z2 |] %18
V:3
 x8 | x8 | z4 z2 [B,,B,]2 | x8 | x8 | x8 | x8 | x8 | x8 | x8 | x8 | x8 | x8 | x8 | x8 | x8 | x8 | %17
 x8 |] %18

